X: 72
T: Salamanca Reel
N: page 24
N: heptatonic
N: match 260
S: Bernie Waugh
R: Reel
M: 4/4
L: 1/8
K: D
|:dB|\
"D"AD (3FED AD (3FED|Adcd "Bm"fedc|"Em"BE ~E2 BE ~E2|\
Beed "A7"cdeg| "Bm"fB ~B2 fB ~B2|
"G"fgfe "D"dfag|"Bm" fd ec "G"dABG|"A7"FAEA "D"D2::\
fg| "D"afdf "Em"bgeg|"Bm"fdcd "G"BAFG|
"D"Addc "Bm"defg|"Em"(3aba gb "A"a2fg|\
"D"~a3f "Em"~g3e|"Bm" ~f3e "D" dfag|\
"Bm"fdec "G"dBAG|"A"FAEA "D"D2:|
